X: 3
T: The Sailor On The Rock
R: reel
M: 4/4
L: 1/8
K: Dmaj
d2fd BAFB|A (3DDD D FAAB|d2fd BAFB|ABdf efde|d2fd BAFB|A (3DDD D FAAB|defd BAFB|ABdf efd2||f (3aaa g fdef|gfga bgeg|faag fedB|ABdf efde|f (3aaa g fdef|gfga bgeg|f2fe d2dB|ABdf efd2||


Tune 765	Setting 13876

